src/components/Icon/assets/folder.svg

<svg width="24" height="24" viewBox="0 0 24 24" fill="none" xmlns="http://www.w3.org/2000/svg">
<g id="folder">
<path id="Combined Shape" fill-rule="evenodd" clip-rule="evenodd" d="M20.0002 16.9998H4.00018V9.99994H20.0002V16.9998ZM20.0002 7.99994H4.00018V4.99976H9.43618L10.4102 6.95676H20.0002V7.99994ZM3.50018 18.9998H20.5002C21.3272 18.9998 22.0002 18.3268 22.0002 17.4998V6.45676C22.0002 5.62976 21.3272 4.95676 20.5002 4.95676H11.6482L11.0892 3.83176C10.8332 3.31876 10.3192 2.99976 9.74618 2.99976H3.50018C2.67318 2.99976 2.00018 3.67276 2.00018 4.49976V17.4998C2.00018 18.3268 2.67318 18.9998 3.50018 18.9998Z" fill="#242428"/>
</g>
</svg>

<svg xmlns="http://www.w3.org/2000/svg" width="24" height="24" fill="none" viewBox="0 0 24 24">
    <path fill="#65676A" fill-rule="evenodd" d="M20 17H4v-7h16v7zm0-9H4V5h5.436l.974 1.957H20V8zM3.5 19h17c.827 0 1.5-.673 1.5-1.5V6.457c0-.827-.673-1.5-1.5-1.5h-8.852l-.559-1.125C10.833 3.319 10.32 3 9.746 3H3.5C2.673 3 2 3.673 2 4.5v13c0 .827.673 1.5 1.5 1.5z" clip-rule="evenodd"/>
</svg>
